X: 10322
T: Masaniello Quadrilles Part 4.
C: Arranged by W. B. LAYBOURN
R: march, reel
B: K\"ohler's Violin Repository, v.1, 1885 p.32 #2
F: http://www.archive.org/details/klersviolinrepos01edin
Z: 2011 John Chambers <jc:trillian.mit.edu>
N: This tune would probably be better written an octave lower.
M: 2/4
L: 1/16
K: D
[|\
vd2((3ABA) d2((3ABA) | d2((3ABA) d>def | g2((3efe) g2((3efe) | g2((3efe) a>gf>e |\
d2((3ABA) d2((3ABA) | d2((3ABA) d>def | g2((3efe) a>gf>e | d2 ((3ABA) d2z2 ||
ua2f>e d2f>g | a3 (bc') | d'2c'>d' f2g>a | b4 a2z2 |\
ua2g>f e2b>a | a2b>c' d'2c'>b | e'2e>f ^g2a>b | a2z2 z4 |
ua6 a>a | f'3^e' =e'>d'c'>d' | a6 a>a | f'3^e' =e'>d'c'>d' |\
a2f>e d2f>g | a2^g>a a2=g>e | g2f>d f2e>c | d2A>f d2z2 "_D.C."|

%%sep 2 1 500

